img/header_logo.svg

<svg width="188" height="31" viewBox="0 0 188 31" fill="none" xmlns="http://www.w3.org/2000/svg">
<path d="M14.3369 17.0527C14.3369 18.9863 13.6387 20.5098 12.2422 21.623C10.8555 22.7363 8.92188 23.293 6.44141 23.293C4.15625 23.293 2.13477 22.8633 0.376953 22.0039V17.7852C1.82227 18.4297 3.04297 18.8838 4.03906 19.1475C5.04492 19.4111 5.96289 19.543 6.79297 19.543C7.78906 19.543 8.55078 19.3525 9.07812 18.9717C9.61523 18.5908 9.88379 18.0244 9.88379 17.2725C9.88379 16.8525 9.7666 16.4814 9.53223 16.1592C9.29785 15.8271 8.95117 15.5098 8.49219 15.207C8.04297 14.9043 7.12012 14.4209 5.72363 13.7568C4.41504 13.1416 3.43359 12.5508 2.7793 11.9844C2.125 11.418 1.60254 10.7588 1.21191 10.0068C0.821289 9.25488 0.625977 8.37598 0.625977 7.37012C0.625977 5.47559 1.26562 3.98633 2.54492 2.90234C3.83398 1.81836 5.61133 1.27637 7.87695 1.27637C8.99023 1.27637 10.0498 1.4082 11.0557 1.67188C12.0713 1.93555 13.1309 2.30664 14.2344 2.78516L12.7695 6.31543C11.627 5.84668 10.6797 5.51953 9.92773 5.33398C9.18555 5.14844 8.45312 5.05566 7.73047 5.05566C6.87109 5.05566 6.21191 5.25586 5.75293 5.65625C5.29395 6.05664 5.06445 6.5791 5.06445 7.22363C5.06445 7.62402 5.15723 7.97559 5.34277 8.27832C5.52832 8.57129 5.82129 8.85938 6.22168 9.14258C6.63184 9.41602 7.59375 9.91406 9.10742 10.6367C11.1094 11.5938 12.4814 12.5557 13.2236 13.5225C13.9658 14.4795 14.3369 15.6562 14.3369 17.0527ZM34.7844 23H30.3166V13.4346C30.3166 11.0713 29.4377 9.88965 27.6799 9.88965C26.4299 9.88965 25.5266 10.3145 24.9699 11.1641C24.4133 12.0137 24.135 13.3906 24.135 15.2949V23H19.6672V0.207031H24.135V4.85059C24.135 5.21191 24.1008 6.06152 24.0324 7.39941L23.9299 8.71777H24.1643C25.1604 7.11621 26.7424 6.31543 28.9104 6.31543C30.8342 6.31543 32.2941 6.83301 33.2902 7.86816C34.2863 8.90332 34.7844 10.3877 34.7844 12.3213V23ZM44.7436 14.7822C44.7436 16.4033 45.0072 17.6289 45.5346 18.459C46.0717 19.2891 46.9408 19.7041 48.142 19.7041C49.3334 19.7041 50.1879 19.2939 50.7055 18.4736C51.2328 17.6436 51.4965 16.4131 51.4965 14.7822C51.4965 13.1611 51.2328 11.9453 50.7055 11.1348C50.1781 10.3242 49.3139 9.91895 48.1127 9.91895C46.9213 9.91895 46.0619 10.3242 45.5346 11.1348C45.0072 11.9355 44.7436 13.1514 44.7436 14.7822ZM56.0668 14.7822C56.0668 17.4482 55.3637 19.5332 53.9574 21.0371C52.5512 22.541 50.5932 23.293 48.0834 23.293C46.5111 23.293 45.1244 22.9512 43.9232 22.2676C42.7221 21.5742 41.7992 20.583 41.1547 19.2939C40.5102 18.0049 40.1879 16.501 40.1879 14.7822C40.1879 12.1064 40.8861 10.0264 42.2826 8.54199C43.6791 7.05762 45.642 6.31543 48.1713 6.31543C49.7436 6.31543 51.1303 6.65723 52.3314 7.34082C53.5326 8.02441 54.4555 9.00586 55.1 10.2852C55.7445 11.5645 56.0668 13.0635 56.0668 14.7822ZM70.5523 23.293C68.6285 23.293 67.1197 22.5947 66.026 21.1982H65.7916C65.9479 22.5654 66.026 23.3564 66.026 23.5713V30.207H61.5582V6.62305H65.191L65.8209 8.74707H66.026C67.0709 7.12598 68.6188 6.31543 70.6695 6.31543C72.6031 6.31543 74.1168 7.0625 75.2105 8.55664C76.3043 10.0508 76.8512 12.126 76.8512 14.7822C76.8512 16.5303 76.5924 18.0488 76.0748 19.3379C75.567 20.627 74.8395 21.6084 73.8922 22.2822C72.9449 22.9561 71.8316 23.293 70.5523 23.293ZM69.234 9.88965C68.1305 9.88965 67.3248 10.2314 66.817 10.915C66.3092 11.5889 66.0455 12.707 66.026 14.2695V14.7529C66.026 16.5107 66.2848 17.7705 66.8023 18.5322C67.3297 19.2939 68.1598 19.6748 69.2926 19.6748C71.2945 19.6748 72.2955 18.0244 72.2955 14.7236C72.2955 13.1123 72.0465 11.9062 71.5484 11.1055C71.0602 10.2949 70.2887 9.88965 69.234 9.88965Z" fill="#2D2D2D"/>
<path d="M102.133 12.2627C102.133 15.8076 101.254 18.5322 99.4959 20.4365C97.7381 22.3408 95.2186 23.293 91.9373 23.293C88.6561 23.293 86.1365 22.3408 84.3787 20.4365C82.6209 18.5322 81.742 15.7979 81.742 12.2334C81.742 8.66895 82.6209 5.94922 84.3787 4.07422C86.1463 2.18945 88.6756 1.24707 91.9666 1.24707C95.2576 1.24707 97.7723 2.19434 99.5105 4.08887C101.259 5.9834 102.133 8.70801 102.133 12.2627ZM86.5027 12.2627C86.5027 14.6553 86.9568 16.457 87.865 17.668C88.7732 18.8789 90.1307 19.4844 91.9373 19.4844C95.5603 19.4844 97.3719 17.0771 97.3719 12.2627C97.3719 7.43848 95.5701 5.02637 91.9666 5.02637C90.16 5.02637 88.7977 5.63672 87.8797 6.85742C86.9617 8.06836 86.5027 9.87012 86.5027 12.2627ZM123.137 23H118.669V13.4346C118.669 12.2529 118.459 11.3691 118.039 10.7832C117.619 10.1875 116.95 9.88965 116.032 9.88965C114.782 9.88965 113.879 10.3096 113.322 11.1494C112.766 11.9795 112.487 13.3613 112.487 15.2949V23H108.02V6.62305H111.433L112.033 8.71777H112.282C112.78 7.92676 113.464 7.33105 114.333 6.93066C115.212 6.52051 116.208 6.31543 117.321 6.31543C119.226 6.31543 120.671 6.83301 121.657 7.86816C122.644 8.89355 123.137 10.3779 123.137 12.3213V23ZM134.004 23H129.536V0.207031H134.004V23ZM140.316 2.38965C140.316 0.93457 141.126 0.207031 142.747 0.207031C144.369 0.207031 145.179 0.93457 145.179 2.38965C145.179 3.08301 144.974 3.625 144.564 4.01562C144.163 4.39648 143.558 4.58691 142.747 4.58691C141.126 4.58691 140.316 3.85449 140.316 2.38965ZM144.974 23H140.506V6.62305H144.974V23ZM166.593 23H162.126V13.4346C162.126 12.2529 161.916 11.3691 161.496 10.7832C161.076 10.1875 160.407 9.88965 159.489 9.88965C158.239 9.88965 157.336 10.3096 156.779 11.1494C156.222 11.9795 155.944 13.3613 155.944 15.2949V23H151.476V6.62305H154.889L155.49 8.71777H155.739C156.237 7.92676 156.921 7.33105 157.79 6.93066C158.669 6.52051 159.665 6.31543 160.778 6.31543C162.682 6.31543 164.128 6.83301 165.114 7.86816C166.1 8.89355 166.593 10.3779 166.593 12.3213V23ZM179.775 9.49414C178.828 9.49414 178.086 9.79688 177.549 10.4023C177.012 10.998 176.704 11.8477 176.626 12.9512H182.895C182.876 11.8477 182.588 10.998 182.031 10.4023C181.474 9.79688 180.722 9.49414 179.775 9.49414ZM180.405 23.293C177.768 23.293 175.708 22.5654 174.223 21.1104C172.739 19.6553 171.997 17.5947 171.997 14.9287C171.997 12.1846 172.68 10.0654 174.048 8.57129C175.425 7.06738 177.324 6.31543 179.746 6.31543C182.06 6.31543 183.862 6.97461 185.151 8.29297C186.44 9.61133 187.085 11.4326 187.085 13.7568V15.9248H176.523C176.572 17.1943 176.948 18.1855 177.651 18.8984C178.354 19.6113 179.341 19.9678 180.61 19.9678C181.596 19.9678 182.529 19.8652 183.408 19.6602C184.287 19.4551 185.205 19.1279 186.162 18.6787V22.1357C185.381 22.5264 184.546 22.8145 183.657 23C182.768 23.1953 181.684 23.293 180.405 23.293Z" fill="#3670C7"/>
</svg>

<svg width="188" height="31" fill="none" xmlns="http://www.w3.org/2000/svg"><path d="M14.337 17.053c0 1.933-.698 3.457-2.095 4.57-1.387 1.113-3.32 1.67-5.8 1.67-2.286 0-4.307-.43-6.065-1.29v-4.218c1.445.645 2.666 1.099 3.662 1.363 1.006.263 1.924.395 2.754.395.996 0 1.758-.19 2.285-.571.537-.381.806-.948.806-1.7 0-.42-.117-.79-.352-1.113-.234-.332-.58-.65-1.04-.952-.449-.303-1.372-.786-2.768-1.45-1.309-.615-2.29-1.206-2.945-1.773a6.654 6.654 0 0 1-1.567-1.977C.822 9.255.626 8.376.626 7.37c0-1.894.64-3.384 1.919-4.468C3.834 1.818 5.61 1.276 7.877 1.276c1.113 0 2.173.132 3.179.396 1.015.264 2.075.635 3.178 1.113l-1.464 3.53c-1.143-.468-2.09-.795-2.842-.981a9.036 9.036 0 0 0-2.198-.278c-.859 0-1.518.2-1.977.6-.46.4-.689.923-.689 1.568 0 .4.093.752.279 1.054.185.293.478.581.879.865.41.273 1.372.771 2.885 1.494 2.002.957 3.374 1.919 4.117 2.886.742.957 1.113 2.133 1.113 3.53ZM34.784 23h-4.467v-9.565c0-2.364-.88-3.545-2.637-3.545-1.25 0-2.153.425-2.71 1.274-.557.85-.835 2.227-.835 4.13V23h-4.468V.207h4.468v4.644c0 .36-.034 1.21-.103 2.548l-.102 1.319h.234c.996-1.602 2.578-2.403 4.746-2.403 1.924 0 3.384.518 4.38 1.553s1.494 2.52 1.494 4.453V23Zm9.96-8.218c0 1.621.263 2.847.79 3.677.538.83 1.407 1.245 2.608 1.245 1.191 0 2.046-.41 2.563-1.23.528-.83.791-2.06.791-3.692 0-1.62-.263-2.837-.79-3.647-.528-.81-1.392-1.216-2.593-1.216-1.192 0-2.051.405-2.578 1.216-.528.8-.791 2.016-.791 3.647Zm11.323 0c0 2.666-.703 4.751-2.11 6.255-1.406 1.504-3.364 2.256-5.874 2.256-1.572 0-2.959-.342-4.16-1.025-1.2-.694-2.124-1.685-2.768-2.974-.645-1.29-.967-2.793-.967-4.512 0-2.676.698-4.756 2.095-6.24 1.396-1.484 3.359-2.227 5.888-2.227 1.573 0 2.96.342 4.16 1.026 1.202.683 2.124 1.665 2.769 2.944.645 1.28.967 2.778.967 4.497Zm14.485 8.511c-1.924 0-3.432-.698-4.526-2.095h-.234c.156 1.367.234 2.158.234 2.373v6.636h-4.468V6.623h3.633l.63 2.124h.205c1.045-1.621 2.593-2.432 4.644-2.432 1.933 0 3.447.747 4.54 2.242 1.094 1.494 1.641 3.569 1.641 6.225 0 1.748-.259 3.267-.776 4.556-.508 1.289-1.236 2.27-2.183 2.944-.947.674-2.06 1.011-3.34 1.011ZM69.234 9.89c-1.103 0-1.91.341-2.417 1.025-.508.674-.771 1.792-.791 3.355v.483c0 1.758.259 3.017.776 3.78.528.76 1.358 1.142 2.49 1.142 2.002 0 3.004-1.65 3.004-4.951 0-1.612-.25-2.818-.748-3.619-.488-.81-1.26-1.215-2.314-1.215Z" fill="#2D2D2D"/><path d="M102.133 12.263c0 3.545-.879 6.27-2.637 8.173-1.758 1.905-4.277 2.857-7.559 2.857-3.28 0-5.8-.952-7.558-2.857-1.758-1.904-2.637-4.638-2.637-8.203 0-3.564.879-6.284 2.637-8.159 1.767-1.885 4.297-2.827 7.588-2.827 3.29 0 5.805.947 7.543 2.842 1.749 1.894 2.623 4.619 2.623 8.174Zm-15.63 0c0 2.392.454 4.194 1.362 5.405.908 1.21 2.266 1.816 4.072 1.816 3.623 0 5.435-2.407 5.435-7.221 0-4.825-1.802-7.237-5.405-7.237-1.807 0-3.17.61-4.087 1.831-.918 1.211-1.377 3.013-1.377 5.406ZM123.137 23h-4.468v-9.565c0-1.182-.21-2.066-.63-2.652-.42-.595-1.089-.893-2.007-.893-1.25 0-2.153.42-2.71 1.26-.556.83-.835 2.211-.835 4.145V23h-4.467V6.623h3.413l.6 2.095h.249a4.684 4.684 0 0 1 2.051-1.787c.879-.41 1.875-.616 2.988-.616 1.905 0 3.35.518 4.336 1.553.987 1.026 1.48 2.51 1.48 4.453V23Zm10.867 0h-4.468V.207h4.468V23Zm6.312-20.61c0-1.455.81-2.183 2.431-2.183 1.622 0 2.432.728 2.432 2.183 0 .693-.205 1.235-.615 1.626-.401.38-1.006.57-1.817.57-1.621 0-2.431-.732-2.431-2.196ZM144.974 23h-4.468V6.623h4.468V23Zm21.619 0h-4.467v-9.565c0-1.182-.21-2.066-.63-2.652-.42-.595-1.089-.893-2.007-.893-1.25 0-2.153.42-2.71 1.26-.557.83-.835 2.211-.835 4.145V23h-4.468V6.623h3.413l.601 2.095h.249a4.684 4.684 0 0 1 2.051-1.787c.879-.41 1.875-.616 2.988-.616 1.904 0 3.35.518 4.336 1.553.986 1.026 1.479 2.51 1.479 4.453V23Zm13.182-13.506c-.947 0-1.689.303-2.226.908-.537.596-.845 1.446-.923 2.55h6.269c-.019-1.104-.307-1.954-.864-2.55-.557-.605-1.309-.908-2.256-.908Zm.63 13.799c-2.637 0-4.697-.728-6.182-2.183-1.484-1.455-2.226-3.515-2.226-6.181 0-2.744.683-4.864 2.051-6.358 1.377-1.504 3.276-2.256 5.698-2.256 2.314 0 4.116.66 5.405 1.978 1.289 1.318 1.934 3.14 1.934 5.464v2.168h-10.562c.049 1.27.425 2.26 1.128 2.973.703.713 1.69 1.07 2.959 1.07.986 0 1.919-.103 2.798-.308a14 14 0 0 0 2.754-.981v3.457c-.781.39-1.616.678-2.505.864-.889.195-1.973.293-3.252.293Z" fill="#3670C7"/></svg>
